svgs/regular/truck-fast.svg

<svg xmlns="http://www.w3.org/2000/svg" viewBox="0 0 640 512"><!--! Font Awesome Pro 6.4.2 by @fontawesome - https://fontawesome.com License - https://fontawesome.com/license (Commercial License) Copyright 2023 Fonticons, Inc. --><path d="M352 48H128c-8.8 0-16 7.2-16 16V96H240c8.8 0 16 7.2 16 16s-7.2 16-16 16H16c-8.8 0-16-7.2-16-16s7.2-16 16-16H64V64C64 28.7 92.7 0 128 0H352c35.3 0 64 28.7 64 64V96h42.7c14.9 0 29.1 5.9 39.6 16.4l93.3 93.3c10.5 10.5 16.4 24.7 16.4 39.6V368h8c13.3 0 24 10.7 24 24s-10.7 24-24 24H576c0 53-43 96-96 96s-96-43-96-96h-8H352 320 256c0 53-43 96-96 96s-96-43-96-96V368 288h48v44.8c14.1-8.2 30.5-12.8 48-12.8c35.5 0 66.6 19.3 83.2 48H320h32c8.8 0 16-7.2 16-16V64c0-8.8-7.2-16-16-16zM557.7 239.6l-93.3-93.3c-1.5-1.5-3.5-2.3-5.7-2.3H416v96H558l-.2-.2-.2-.2zM208 416a48 48 0 1 0 -96 0 48 48 0 1 0 96 0zm272 48a48 48 0 1 0 0-96 48 48 0 1 0 0 96zM48 160H272c8.8 0 16 7.2 16 16s-7.2 16-16 16H48c-8.8 0-16-7.2-16-16s7.2-16 16-16zM16 224H240c8.8 0 16 7.2 16 16s-7.2 16-16 16H16c-8.8 0-16-7.2-16-16s7.2-16 16-16z"/></svg>

<svg xmlns="http://www.w3.org/2000/svg" viewBox="0 0 640 512"><!--! Font Awesome Pro 6.1.1 by @fontawesome - https://fontawesome.com License - https://fontawesome.com/license (Commercial License) Copyright 2022 Fonticons, Inc. --><path d="M352 48H128C119.2 48 112 55.16 112 64V96H240C248.8 96 256 103.2 256 112C256 120.8 248.8 128 240 128H16C7.164 128 0 120.8 0 112C0 103.2 7.164 96 16 96H64V64C64 28.65 92.65 0 128 0H352C387.3 0 416 28.65 416 64V96H458.7C473.6 96 487.8 101.9 498.3 112.4L591.6 205.7C602.1 216.2 608 230.4 608 245.3V368H616C629.3 368 640 378.7 640 392C640 405.3 629.3 416 616 416H576C576 469 533 512 480 512C426.1 512 384 469 384 416H256C256 469 213 512 160 512C106.1 512 64 469 64 416V288H112V332.8C126.1 324.7 142.5 320 160 320C195.5 320 226.6 339.3 243.2 368H352C360.8 368 368 360.8 368 352V64C368 55.16 360.8 48 352 48H352zM464.4 146.3C462.9 144.8 460.9 144 458.7 144H416V240H558L557.8 239.8L557.7 239.6L464.4 146.3zM160 368C133.5 368 112 389.5 112 416C112 442.5 133.5 464 160 464C186.5 464 208 442.5 208 416C208 389.5 186.5 368 160 368zM480 464C506.5 464 528 442.5 528 416C528 389.5 506.5 368 480 368C453.5 368 432 389.5 432 416C432 442.5 453.5 464 480 464zM272 160C280.8 160 288 167.2 288 176C288 184.8 280.8 192 272 192H48C39.16 192 32 184.8 32 176C32 167.2 39.16 160 48 160H272zM240 224C248.8 224 256 231.2 256 240C256 248.8 248.8 256 240 256H16C7.164 256 0 248.8 0 240C0 231.2 7.164 224 16 224H240z"/></svg>
